src/bladeworks/spatial_luts/rec2020_hlg_to_rec709_sdr_v1.cube
TITLE "Bladeworks Rec.2020 HLG to Rec.709 SDR v1"
LUT_3D_SIZE 17
DOMAIN_MIN 0.0 0.0 0.0
DOMAIN_MAX 1.0 1.0 1.0
0.000000000 0.000000000 0.000000000
0.025733126 0.000000000 0.000000000
0.127925073 0.000000000 0.000000000
0.250976396 0.000000000 0.000000000
0.375005243 0.000000000 0.000000000
0.498041419 0.000000000 0.000000000
0.618454727 0.000000000 0.000000000
0.734875160 0.000000000 0.000000000
0.846190464 0.000000000 0.000000000
0.963646029 0.000000000 0.000000000
1.000000000 0.000000000 0.000000000
1.000000000 0.000000000 0.000000000
1.000000000 0.000000000 0.000000000
1.000000000 0.000000000 0.000000000
1.000000000 0.000000000 0.000000000
1.000000000 0.000000000 0.000000000
1.000000000 0.000000000 0.000000000
0.000000000 0.017529565 0.000000000
0.016592550 0.015595002 0.000000000
0.120875093 0.007326201 0.000000000
0.247022932 0.000000000 0.000000000
0.372373449 0.000000000 0.000000000
0.496147369 0.000000000 0.000000000
0.617028716 0.000000000 0.000000000
0.733770914 0.000000000 0.000000000
0.845319494 0.000000000 0.000000000
0.962968253 0.000000000 0.000000000
1.000000000 0.000000000 0.000000000
1.000000000 0.000000000 0.000000000
1.000000000 0.000000000 0.000000000
1.000000000 0.000000000 0.000000000
1.000000000 0.000000000 0.000000000
1.000000000 0.000000000 0.000000000
1.000000000 0.000000000 0.000000000
0.000000000 0.091357221 0.000000000
0.000000000 0.089588041 0.000000000
0.086542767 0.081437401 0.000000000
0.227911923 0.064186993 0.000000000
0.359657143 0.037537151 0.000000000
0.487910724 0.000764327 0.000000000
0.610875862 0.000000000 0.000000000
0.729017098 0.000000000 0.000000000
0.841575181 0.000000000 0.000000000
0.960057474 0.000000000 0.000000000
1.000000000 0.000000000 0.000000000
1.000000000 0.000000000 0.000000000
1.000000000 0.000000000 0.000000000
1.000000000 0.000000000 0.000000000
1.000000000 0.000000000 0.000000000
1.000000000 0.000000000 0.000000000
1.000000000 0.000000000 0.000000000
0.000000000 0.192860593 0.000000000
0.000000000 0.191862809 0.000000000
0.008327292 0.187489277 0.000000000
0.184981320 0.177167334 0.000000000
0.330627388 0.159959466 0.000000000
0.464952886 0.133606358 0.000000000
0.593470692 0.093518684 0.000000000
0.717196094 0.034796097 0.000000000
0.833877797 0.000000000 0.000000000
0.954088991 0.000000000 0.000000000
1.000000000 0.000000000 0.000000000
1.000000000 0.000000000 0.000000000
1.000000000 0.000000000 0.000000000
1.000000000 0.000000000 0.000000000
1.000000000 0.000000000 0.000000000
1.000000000 0.000000000 0.000000000
1.000000000 0.000000000 0.000000000
0.000000000 0.292758673 0.000000000
0.000000000 0.292111806 0.000000000
0.000000000 0.289325443 0.000000000
0.097569530 0.282778074 0.000000000
0.281184896 0.270723788 0.000000000
0.427625008 0.253230831 0.000000000
0.562036548 0.229244861 0.000000000
0.689111536 0.197129969 0.000000000
0.810074764 0.153738317 0.000000000
0.938423805 0.080794027 0.000000000
1.000000000 0.000000000 0.000000000
1.000000000 0.000000000 0.000000000
1.000000000 0.000000000 0.000000000
1.000000000 0.000000000 0.000000000
1.000000000 0.000000000 0.000000000
1.000000000 0.000000000 0.000000000
1.000000000 0.000000000 0.000000000
0.000000000 0.388573337 0.000000000
0.000000000 0.388124926 0.000000000
0.000000000 0.386198160 0.000000000
0.000000000 0.382242080 0.000000000
0.200187950 0.373296511 0.000000000
0.372568830 0.359593215 0.000000000
0.517309524 0.341324334 0.000000000
0.649808287 0.317947767 0.000000000
0.774023795 0.288729132 0.000000000
0.904740305 0.247644661 0.000000000
1.000000000 0.179403392 0.000000000
1.000000000 0.036781542 0.000000000
1.000000000 0.000000000 0.000000000
1.000000000 0.000000000 0.000000000
1.000000000 0.000000000 0.000000000
1.000000000 0.000000000 0.000000000
1.000000000 0.000000000 0.000000000
0.000000000 0.478427000 0.000000000
0.000000000 0.478104668 0.000000000
0.000000000 0.476721393 0.000000000
0.000000000 0.473890175 0.000000000
0.038087130 0.468847691 0.000000000
0.293284787 0.457246845 0.000000000
0.457261105 0.441955111 0.000000000
0.598505866 0.422711496 0.000000000
0.727612521 0.399243694 0.000000000
0.861717447 0.367557950 0.000000000
1.000000000 0.319306015 0.000000000
1.000000000 0.242279878 0.000000000
1.000000000 0.092385335 0.000000000
1.000000000 0.000000000 0.000000000
1.000000000 0.000000000 0.000000000
1.000000000 0.000000000 0.000000000
1.000000000 0.000000000 0.000000000
0.000000000 0.561057491 0.000000000
0.000000000 0.560820759 0.000000000
0.000000000 0.559805587 0.000000000
0.000000000 0.557731620 0.000000000
0.000000000 0.554381423 0.000000000
0.169244681 0.546881326 0.000000000
0.378028942 0.533461566 0.000000000
0.534118539 0.516697747 0.000000000
0.670644891 0.496465451 0.000000000
0.809551579 0.469577293 0.000000000
0.966456647 0.429794363 0.000000000
1.000000000 0.370224440 0.000000000
1.000000000 0.277193725 0.000000000
1.000000000 0.097695303 0.000000000
1.000000000 0.000000000 0.000000000
1.000000000 0.000000000 0.000000000
1.000000000 0.000000000 0.000000000
0.000000000 0.635803972 0.000000000
0.000000000 0.635627645 0.000000000
0.000000000 0.634871876 0.000000000
0.000000000 0.633329718 0.000000000
0.000000000 0.630843868 0.000000000
0.000000000 0.627268724 0.000000000
0.269370618 0.616450786 0.000000000
0.454386611 0.601423408 0.000000000
0.602678748 0.583371464 0.000000000
0.748492137 0.559548511 0.000000000
0.910311532 0.524729519 0.000000000
1.000000000 0.473849414 0.000000000
1.000000000 0.398840648 0.000000000
1.000000000 0.282806380 0.000000000
1.000000000 0.037053747 0.000000000
1.000000000 0.000000000 0.000000000
1.000000000 0.000000000 0.000000000
0.000000000 0.709931901 0.000000000
0.000000000 0.709803507 0.000000000
0.000000000 0.709253396 0.000000000
0.000000000 0.708131930 0.000000000
0.000000000 0.706327163 0.000000000
0.000000000 0.703737969 0.000000000
0.041577050 0.699571316 0.000000000
0.339633270 0.686053206 0.000000000
0.511972807 0.669847144 0.000000000
0.669678590 0.648527748 0.000000000
0.839104587 0.617544572 0.000000000
1.000000000 0.572780578 0.000000000
1.000000000 0.508413722 0.000000000
1.000000000 0.415176410 0.000000000
1.000000000 0.271347574 0.000000000
1.000000000 0.000000000 0.000000000
1.000000000 0.000000000 0.000000000
0.000000000 0.788405194 0.000000000
0.000000000 0.788317144 0.000000000
0.000000000 0.787940012 0.000000000
0.000000000 0.787171804 0.000000000
0.000000000 0.785937282 0.000000000
0.000000000 0.784169959 0.000000000
0.000000000 0.781805428 0.000000000
0.097978530 0.776979694 0.000000000
0.369884125 0.762627544 0.000000000
0.555401256 0.743759715 0.000000000
0.739457913 0.716387035 0.000000000
0.931098141 0.677011152 0.000000000
1.000000000 0.620998059 0.000000000
1.000000000 0.542081044 0.000000000
1.000000000 0.430205283 0.000000000
1.000000000 0.258313107 0.000000000
1.000000000 0.000000000 0.000000000
0.000000000 0.866827736 0.000000000
0.000000000 0.866771020 0.000000000
0.000000000 0.866528166 0.000000000
0.000000000 0.866033823 0.000000000
0.000000000 0.865240366 0.000000000
0.000000000 0.864106527 0.000000000
0.000000000 0.862593341 0.000000000
0.000000000 0.860661814 0.000000000
0.046884688 0.857346250 0.000000000
0.378753888 0.840991254 0.000000000
0.599024908 0.817232281 0.000000000
0.807983781 0.783027356 0.000000000
1.000000000 0.734441265 0.000000000
1.000000000 0.666557942 0.000000000
1.000000000 0.573042268 0.000000000
1.000000000 0.443465998 0.000000000
1.000000000 0.245046878 0.000000000
0.000000000 0.940742591 0.000000000
0.000000000 0.940708178 0.000000000
0.000000000 0.940560860 0.000000000
0.000000000 0.940261161 0.000000000
0.000000000 0.939780615 0.000000000
0.000000000 0.939094971 0.000000000
0.000000000 0.938181857 0.000000000
0.000000000 0.937019487 0.000000000
0.000000000 0.935585784 0.000000000
0.000000000 0.933631688 0.000000000
0.386478292 0.915134982 0.000000000
0.640270575 0.886162173 0.000000000
0.871524138 0.844819346 0.000000000
1.000000000 0.786888855 0.000000000
1.000000000 0.707428723 0.000000000
1.000000000 0.600351237 0.000000000
1.000000000 0.455118740 0.000000000
0.000000000 1.000000000 0.000000000
0.000000000 1.000000000 0.000000000
0.000000000 1.000000000 0.000000000
0.000000000 1.000000000 0.000000000
0.000000000 1.000000000 0.000000000
0.000000000 1.000000000 0.000000000
0.000000000 1.000000000 0.000000000
0.000000000 1.000000000 0.000000000
0.000000000 1.000000000 0.000000000
0.000000000 1.000000000 0.000000000
0.000000000 1.000000000 0.000000000
0.392913141 0.981710240 0.000000000
0.677301516 0.947637634 0.000000000
0.927701500 0.899450940 0.000000000
1.000000000 0.832809988 0.000000000
1.000000000 0.742946077 0.000000000
1.000000000 0.624184897 0.000000000
0.000000000 1.000000000 0.000000000
0.000000000 1.000000000 0.000000000
0.000000000 1.000000000 0.000000000
0.000000000 1.000000000 0.000000000
0.000000000 1.000000000 0.000000000
0.000000000 1.000000000 0.000000000
0.000000000 1.000000000 0.000000000
0.000000000 1.000000000 0.000000000
0.000000000 1.000000000 0.000000000
0.000000000 1.000000000 0.000000000
0.000000000 1.000000000 0.000000000
0.000000000 1.000000000 0.000000000
0.398371277 1.000000000 0.000000000
0.709547753 1.000000000 0.000000000
0.976103641 0.946521256 0.000000000
1.000000000 0.872422552 0.000000000
1.000000000 0.773924795 0.000000000
0.000000000 1.000000000 0.000000000
0.000000000 1.000000000 0.000000000
0.000000000 1.000000000 0.000000000
0.000000000 1.000000000 0.000000000
0.000000000 1.000000000 0.000000000
0.000000000 1.000000000 0.000000000
0.000000000 1.000000000 0.000000000
0.000000000 1.000000000 0.000000000
0.000000000 1.000000000 0.000000000
0.000000000 1.000000000 0.000000000
0.000000000 1.000000000 0.000000000
0.000000000 1.000000000 0.000000000
0.000000000 1.000000000 0.000000000
0.403585921 1.000000000 0.000000000
0.737807362 1.000000000 0.000000000
1.000000000 0.987526820 0.000000000
1.000000000 0.907554327 0.000000000
0.000000000 1.000000000 0.000000000
0.000000000 1.000000000 0.000000000
0.000000000 1.000000000 0.000000000
0.000000000 1.000000000 0.000000000
0.000000000 1.000000000 0.000000000
0.000000000 1.000000000 0.000000000
0.000000000 1.000000000 0.000000000
0.000000000 1.000000000 0.000000000
0.000000000 1.000000000 0.000000000
0.000000000 1.000000000 0.000000000
0.000000000 1.000000000 0.000000000
0.000000000 1.000000000 0.000000000
0.000000000 1.000000000 0.000000000
0.000000000 1.000000000 0.000000000
0.409613284 1.000000000 0.000000000
0.764025920 1.000000000 0.000000000
1.000000000 1.000000000 0.000000000
0.000000000 0.000000000 0.017353401
0.024598783 0.000000000 0.017052283
0.127054168 0.000000000 0.015768306
0.250456463 0.000000000 0.013200516
0.374648927 0.000000000 0.009202897
0.497791156 0.000000000 0.003740580
0.618278193 0.000000000 0.000000000
0.734738409 0.000000000 0.000000000
0.846082577 0.000000000 0.000000000
0.963562058 0.000000000 0.000000000
1.000000000 0.000000000 0.000000000
1.000000000 0.000000000 0.000000000
1.000000000 0.000000000 0.000000000
1.000000000 0.000000000 0.000000000
1.000000000 0.000000000 0.000000000
1.000000000 0.000000000 0.000000000
1.000000000 0.000000000 0.000000000
0.000000000 0.017396380 0.015750412
0.015463192 0.015463208 0.015463192
0.119976292 0.007196470 0.014208166
0.246499914 0.000000000 0.011671179
0.372019884 0.000000000 0.007696486
0.495902320 0.000000000 0.002265576
0.616851614 0.000000000 0.000000000
0.733633838 0.000000000 0.000000000
0.845211407 0.000000000 0.000000000
0.962884159 0.000000000 0.000000000
1.000000000 0.000000000 0.000000000
1.000000000 0.000000000 0.000000000
1.000000000 0.000000000 0.000000000
1.000000000 0.000000000 0.000000000
1.000000000 0.000000000 0.000000000
1.000000000 0.000000000 0.000000000
1.000000000 0.000000000 0.000000000
0.000000000 0.091227068 0.008989067
0.000000000 0.089456946 0.008714171
0.085460849 0.081306140 0.007506222
0.227376626 0.064060028 0.005061759
0.359319096 0.037414192 0.001229865
0.487675546 0.000641605 0.000000000
0.610696281 0.000000000 0.000000000
0.728878613 0.000000000 0.000000000
0.841466233 0.000000000 0.000000000
0.959972852 0.000000000 0.000000000
1.000000000 0.000000000 0.000000000
1.000000000 0.000000000 0.000000000
1.000000000 0.000000000 0.000000000
1.000000000 0.000000000 0.000000000
1.000000000 0.000000000 0.000000000
1.000000000 0.000000000 0.000000000
1.000000000 0.000000000 0.000000000
0.000000000 0.192793857 0.000000000
0.000000000 0.191795753 0.000000000
0.007238230 0.187427386 0.000000000
0.184368115 0.177102347 0.000000000
0.330270404 0.159888750 0.000000000
0.464709001 0.133525137 0.000000000
0.593292594 0.093415498 0.000000000
0.717061518 0.034683566 0.000000000
0.833767055 0.000000000 0.000000000
0.954003275 0.000000000 0.000000000
1.000000000 0.000000000 0.000000000
1.000000000 0.000000000 0.000000000
1.000000000 0.000000000 0.000000000
1.000000000 0.000000000 0.000000000
1.000000000 0.000000000 0.000000000
1.000000000 0.000000000 0.000000000
1.000000000 0.000000000 0.000000000
0.000000000 0.292715363 0.000000000
0.000000000 0.292068385 0.000000000
0.000000000 0.289281535 0.000000000
0.096628000 0.282741628 0.000000000
0.280779062 0.270685491 0.000000000
0.427365003 0.253189654 0.000000000
0.561851342 0.229199284 0.000000000
0.688973174 0.197077438 0.000000000
0.809968842 0.153673553 0.000000000
0.938344122 0.080694774 0.000000000
1.000000000 0.000000000 0.000000000
1.000000000 0.000000000 0.000000000
1.000000000 0.000000000 0.000000000
1.000000000 0.000000000 0.000000000
1.000000000 0.000000000 0.000000000
1.000000000 0.000000000 0.000000000
1.000000000 0.000000000 0.000000000
0.000000000 0.388543301 0.000000000
0.000000000 0.388094841 0.000000000
0.000000000 0.386167859 0.000000000
0.000000000 0.382211332 0.000000000
0.199659766 0.373274999 0.000000000
0.372279357 0.359570368 0.000000000
0.517112726 0.341299634 0.000000000
0.649664136 0.317920543 0.000000000
0.773914425 0.288698444 0.000000000
0.904658328 0.247608298 0.000000000
1.000000000 0.179354181 0.000000000
1.000000000 0.036695451 0.000000000
1.000000000 0.000000000 0.000000000
1.000000000 0.000000000 0.000000000
1.000000000 0.000000000 0.000000000
1.000000000 0.000000000 0.000000000
1.000000000 0.000000000 0.000000000
0.000000000 0.478405405 0.000000000
0.000000000 0.478083047 0.000000000
0.000000000 0.476699663 0.000000000
0.000000000 0.473868217 0.000000000
0.037145205 0.468836610 0.000000000
0.292935011 0.457234935 0.000000000
0.457045199 0.441942098 0.000000000
0.598353084 0.422697072 0.000000000
0.727498340 0.399227500 0.000000000
0.861632434 0.367539244 0.000000000
1.000000000 0.319283077 0.000000000
1.000000000 0.242248379 0.000000000
1.000000000 0.092317995 0.000000000
1.000000000 0.000000000 0.000000000
1.000000000 0.000000000 0.000000000
1.000000000 0.000000000 0.000000000
1.000000000 0.000000000 0.000000000
0.000000000 0.561041629 0.000000000
0.000000000 0.560804882 0.000000000
0.000000000 0.559789648 0.000000000
0.000000000 0.557715555 0.000000000
0.000000000 0.554365152 0.000000000
0.168711762 0.546876606 0.000000000
0.377778754 0.533456049 0.000000000
0.533952635 0.516691239 0.000000000
0.670524045 0.496457751 0.000000000
0.809462659 0.469568001 0.000000000
0.966393877 0.429782670 0.000000000
1.000000000 0.370208910 0.000000000
1.000000000 0.277170858 0.000000000
1.000000000 0.097640743 0.000000000
1.000000000 0.000000000 0.000000000
1.000000000 0.000000000 0.000000000
1.000000000 0.000000000 0.000000000
0.000000000 0.635792156 0.000000000
0.000000000 0.635615821 0.000000000
0.000000000 0.634860015 0.000000000
0.000000000 0.633317782 0.000000000
0.000000000 0.630831811 0.000000000
0.000000000 0.627256491 0.000000000
0.269043546 0.616450311 0.000000000
0.454199340 0.601422152 0.000000000
0.602548444 0.583369285 0.000000000
0.748398189 0.559545133 0.000000000
0.910245711 0.524724417 0.000000000
1.000000000 0.473841810 0.000000000
1.000000000 0.398829213 0.000000000
1.000000000 0.282787674 0.000000000
1.000000000 0.037002643 0.000000000
1.000000000 0.000000000 0.000000000
1.000000000 0.000000000 0.000000000
0.000000000 0.709923297 0.000000000
0.000000000 0.709794898 0.000000000
0.000000000 0.709244766 0.000000000
0.000000000 0.708123256 0.000000000
0.000000000 0.706318418 0.000000000
0.000000000 0.703729122 0.000000000
0.040842328 0.699574579 0.000000000
0.339398230 0.686055832 0.000000000
0.511826070 0.669849023 0.000000000
0.669577070 0.648528669 0.000000000
0.839034669 0.617544144 0.000000000
1.000000000 0.572778277 0.000000000
1.000000000 0.508408820 0.000000000
1.000000000 0.415167695 0.000000000
1.000000000 0.271331466 0.000000000
1.000000000 0.000000000 0.000000000
1.000000000 0.000000000 0.000000000
0.000000000 0.788399293 0.000000000
0.000000000 0.788311240 0.000000000
0.000000000 0.787934097 0.000000000
0.000000000 0.787165866 0.000000000
0.000000000 0.785931306 0.000000000
0.000000000 0.784163928 0.000000000
0.000000000 0.781799324 0.000000000
0.097401317 0.776985206 0.000000000
0.369695722 0.762632459 0.000000000
0.555285246 0.743763867 0.000000000
0.739381472 0.716390119 0.000000000
0.931047927 0.677012777 0.000000000
1.000000000 0.620997738 0.000000000
1.000000000 0.542078161 0.000000000
1.000000000 0.430198846 0.000000000
1.000000000 0.258299650 0.000000000
1.000000000 0.000000000 0.000000000
0.000000000 0.866823935 0.000000000
0.000000000 0.866767218 0.000000000
0.000000000 0.866524358 0.000000000
0.000000000 0.866030003 0.000000000
0.000000000 0.865236527 0.000000000
0.000000000 0.864102662 0.000000000
0.000000000 0.862589440 0.000000000
0.000000000 0.860657868 0.000000000
0.046339677 0.857353008 0.000000000
0.378598595 0.840997426 0.000000000
0.598936257 0.817237631 0.000000000
0.807928010 0.783031579 0.000000000
1.000000000 0.734443996 0.000000000
1.000000000 0.666558767 0.000000000
1.000000000 0.573040724 0.000000000
1.000000000 0.443461351 0.000000000
1.000000000 0.245035991 0.000000000
0.000000000 0.940740284 0.000000000
0.000000000 0.940705871 0.000000000
0.000000000 0.940558551 0.000000000
0.000000000 0.940258846 0.000000000
0.000000000 0.939778292 0.000000000
0.000000000 0.939092636 0.000000000
0.000000000 0.938179506 0.000000000
0.000000000 0.937017116 0.000000000
0.000000000 0.935583388 0.000000000
0.000000000 0.933629257 0.000000000
0.386354840 0.915141369 0.000000000
0.640204902 0.886167734 0.000000000
0.871484521 0.844823800 0.000000000
1.000000000 0.786891887 0.000000000
1.000000000 0.707430014 0.000000000
1.000000000 0.600350474 0.000000000
1.000000000 0.455115432 0.000000000
0.000000000 1.000000000 0.000000000
0.000000000 1.000000000 0.000000000
0.000000000 1.000000000 0.000000000
0.000000000 1.000000000 0.000000000
0.000000000 1.000000000 0.000000000
0.000000000 1.000000000 0.000000000
0.000000000 1.000000000 0.000000000
0.000000000 1.000000000 0.000000000
0.000000000 1.000000000 0.000000000
0.000000000 1.000000000 0.000000000
0.000000000 1.000000000 0.000000000
0.392818365 0.981716060 0.000000000
0.677254131 0.947642688 0.000000000
0.927673918 0.899454987 0.000000000
1.000000000 0.832812775 0.000000000
1.000000000 0.742947381 0.000000000
1.000000000 0.624184530 0.000000000
0.000000000 1.000000000 0.000000000
0.000000000 1.000000000 0.000000000
0.000000000 1.000000000 0.000000000
0.000000000 1.000000000 0.000000000
0.000000000 1.000000000 0.000000000
0.000000000 1.000000000 0.000000000
0.000000000 1.000000000 0.000000000
0.000000000 1.000000000 0.000000000
0.000000000 1.000000000 0.000000000
0.000000000 1.000000000 0.000000000
0.000000000 1.000000000 0.000000000
0.000000000 1.000000000 0.000000000
0.398300747 1.000000000 0.000000000
0.709514256 1.000000000 0.000000000
0.976084683 0.946524568 0.000000000
1.000000000 0.872424827 0.000000000
1.000000000 0.773925884 0.000000000
0.000000000 1.000000000 0.000000000
0.000000000 1.000000000 0.000000000
0.000000000 1.000000000 0.000000000
0.000000000 1.000000000 0.000000000
0.000000000 1.000000000 0.000000000
0.000000000 1.000000000 0.000000000
0.000000000 1.000000000 0.000000000
0.000000000 1.000000000 0.000000000
0.000000000 1.000000000 0.000000000
0.000000000 1.000000000 0.000000000
0.000000000 1.000000000 0.000000000
0.000000000 1.000000000 0.000000000
0.000000000 1.000000000 0.000000000
0.403534763 1.000000000 0.000000000
0.737784016 1.000000000 0.000000000
1.000000000 0.987529326 0.000000000
1.000000000 0.907556030 0.000000000
0.000000000 1.000000000 0.000000000
0.000000000 1.000000000 0.000000000
0.000000000 1.000000000 0.000000000
0.000000000 1.000000000 0.000000000
0.000000000 1.000000000 0.000000000
0.000000000 1.000000000 0.000000000
0.000000000 1.000000000 0.000000000
0.000000000 1.000000000 0.000000000
0.000000000 1.000000000 0.000000000
0.000000000 1.000000000 0.000000000
0.000000000 1.000000000 0.000000000
0.000000000 1.000000000 0.000000000
0.000000000 1.000000000 0.000000000
0.000000000 1.000000000 0.000000000
0.409576880 1.000000000 0.000000000
0.764009779 1.000000000 0.000000000
1.000000000 1.000000000 0.000000000
0.000000000 0.000000000 0.091395735
0.019751229 0.000000000 0.091053463
0.123275150 0.000000000 0.089487227
0.248182269 0.000000000 0.086306334
0.373012238 0.000000000 0.080969234
0.496488631 0.000000000 0.073906711
0.617189630 0.000000000 0.065029889
0.733829005 0.000000000 0.054521834
0.845333800 0.000000000 0.042643771
0.962990226 0.000000000 0.028113500
1.000000000 0.000000000 0.008981577
1.000000000 0.000000000 0.000000000
1.000000000 0.000000000 0.000000000
1.000000000 0.000000000 0.000000000
1.000000000 0.000000000 0.000000000
1.000000000 0.000000000 0.000000000
1.000000000 0.000000000 0.000000000
0.000000000 0.016825525 0.089706293
0.010634838 0.014898045 0.089424377
0.116062519 0.006640560 0.087961293
0.244196346 0.000000000 0.084851543
0.370373698 0.000000000 0.079495504
0.494595874 0.000000000 0.072462932
0.615768451 0.000000000 0.063623934
0.732731545 0.000000000 0.053160914
0.844470844 0.000000000 0.041334088
0.962321349 0.000000000 0.026866967
1.000000000 0.000000000 0.007818961
1.000000000 0.000000000 0.000000000
1.000000000 0.000000000 0.000000000
1.000000000 0.000000000 0.000000000
1.000000000 0.000000000 0.000000000
1.000000000 0.000000000 0.000000000
1.000000000 0.000000000 0.000000000
0.000000000 0.090622379 0.082327827
0.000000000 0.088847018 0.082076706
0.080444722 0.080444803 0.080444722
0.224956965 0.063465715 0.077448719
0.357652778 0.036849228 0.072752334
0.486390575 0.000116280 0.066271274
0.609635785 0.000000000 0.057596066
0.728006505 0.000000000 0.047326580
0.840760672 0.000000000 0.035719909
0.959448567 0.000000000 0.021524065
1.000000000 0.000000000 0.002836451
1.000000000 0.000000000 0.000000000
1.000000000 0.000000000 0.000000000
1.000000000 0.000000000 0.000000000
1.000000000 0.000000000 0.000000000
1.000000000 0.000000000 0.000000000
1.000000000 0.000000000 0.000000000
0.000000000 0.192368248 0.067160499
0.000000000 0.191369776 0.066909442
0.002574756 0.187027753 0.065825808
0.181598986 0.176699897 0.062996394
0.328559664 0.159477712 0.058559411
0.463453220 0.133090252 0.052432841
0.592309605 0.092912022 0.044625357
0.716280470 0.034182902 0.035225610
0.833131872 0.000000000 0.024260885
0.953556857 0.000000000 0.010621643
1.000000000 0.000000000 0.000000000
1.000000000 0.000000000 0.000000000
1.000000000 0.000000000 0.000000000
1.000000000 0.000000000 0.000000000
1.000000000 0.000000000 0.000000000
1.000000000 0.000000000 0.000000000
1.000000000 0.000000000 0.000000000
0.000000000 0.292405146 0.044674257
0.000000000 0.291758587 0.044425618
0.000000000 0.288973484 0.043360325
0.092478476 0.282473909 0.041010490
0.278936561 0.270424097 0.036955261
0.426133065 0.252934648 0.031350959
0.560944146 0.228947557 0.024200852
0.688293319 0.196819662 0.015580351
0.809479000 0.153386061 0.005625794
0.938003049 0.080270037 0.000000000
1.000000000 0.000000000 0.000000000
1.000000000 0.000000000 0.000000000
1.000000000 0.000000000 0.000000000
1.000000000 0.000000000 0.000000000
1.000000000 0.000000000 0.000000000
1.000000000 0.000000000 0.000000000
1.000000000 0.000000000 0.000000000
