src/bladeworks/spatial_luts/rec2020_hlg_to_rec709_sdr_v1.cube
TITLE "Bladeworks Rec.2020 HLG to Rec.709 SDR v1"
LUT_3D_SIZE 5
DOMAIN_MIN 0.0 0.0 0.0
DOMAIN_MAX 1.0 1.0 1.0
0.000000000 0.000000000 0.000000000
0.375005243 0.000000000 0.000000000
0.846190464 0.000000000 0.000000000
1.000000000 0.000000000 0.000000000
1.000000000 0.000000000 0.000000000
0.000000000 0.292758673 0.000000000
0.281184896 0.270723788 0.000000000
0.810074764 0.153738317 0.000000000
1.000000000 0.000000000 0.000000000
1.000000000 0.000000000 0.000000000
0.000000000 0.635803972 0.000000000
0.000000000 0.630843868 0.000000000
0.602678748 0.583371464 0.000000000
1.000000000 0.398840648 0.000000000
1.000000000 0.000000000 0.000000000
0.000000000 0.940742591 0.000000000
0.000000000 0.939780615 0.000000000
0.000000000 0.935585784 0.000000000
0.871524138 0.844819346 0.000000000
1.000000000 0.455118740 0.000000000
0.000000000 1.000000000 0.000000000
0.000000000 1.000000000 0.000000000
0.000000000 1.000000000 0.000000000
0.000000000 1.000000000 0.000000000
1.000000000 1.000000000 0.000000000
0.000000000 0.000000000 0.302382625
0.364307324 0.000000000 0.293880232
0.840662394 0.000000000 0.259768795
1.000000000 0.000000000 0.162963392
1.000000000 0.000000000 0.000000000
0.000000000 0.290415230 0.273381245
0.268612997 0.268613162 0.268612997
0.804970004 0.151329916 0.240978220
1.000000000 0.000000000 0.146978466
1.000000000 0.000000000 0.000000000
0.000000000 0.634534481 0.159447220
0.000000000 0.629597189 0.156522499
0.598320032 0.582613926 0.134625164
1.000000000 0.398356543 0.047235971
1.000000000 0.000000000 0.000000000
0.000000000 0.940678322 0.000000000
0.000000000 0.939715883 0.000000000
0.000000000 0.935519008 0.000000000
0.870419026 0.844943510 0.000000000
1.000000000 0.455026542 0.000000000
0.000000000 1.000000000 0.000000000
0.000000000 1.000000000 0.000000000
0.000000000 1.000000000 0.000000000
0.000000000 1.000000000 0.000000000
1.000000000 1.000000000 0.000000000
0.000000000 0.000000000 0.737378626
0.316180355 0.000000000 0.727120056
0.816189583 0.000000000 0.677072117
1.000000000 0.000000000 0.545739969
1.000000000 0.000000000 0.268697354
0.000000000 0.280054942 0.705916092
0.208718158 0.259123164 0.703064436
0.781279080 0.140386589 0.666257079
1.000000000 0.000000000 0.542492892
1.000000000 0.000000000 0.264960763
0.000000000 0.625612637 0.593916288
0.000000000 0.620651336 0.594713931
0.575653760 0.575654063 0.575653760
1.000000000 0.393151179 0.493707255
1.000000000 0.000000000 0.248175013
0.000000000 0.935920088 0.352055064
0.000000000 0.934966439 0.351721477
0.000000000 0.930807638 0.350267848
0.862275349 0.842165867 0.312955031
1.000000000 0.454014061 0.151712352
0.000000000 1.000000000 0.000000000
0.000000000 1.000000000 0.000000000
0.000000000 1.000000000 0.000000000
0.000000000 1.000000000 0.000000000
1.000000000 1.000000000 0.000000000
0.000000000 0.000000000 1.000000000
0.044435540 0.000000000 1.000000000
0.727523409 0.000000000 1.000000000
1.000000000 0.000000000 1.000000000
1.000000000 0.000000000 0.680543548
0.000000000 0.243399563 1.000000000
0.000000000 0.223575689 1.000000000
0.694454863 0.097646233 1.000000000
1.000000000 0.000000000 1.000000000
1.000000000 0.000000000 0.679835824
0.000000000 0.594537710 1.000000000
0.000000000 0.589500501 1.000000000
0.489224054 0.550978434 1.000000000
1.000000000 0.374384974 1.000000000
1.000000000 0.000000000 0.676759307
0.000000000 0.914593769 0.870256670
0.000000000 0.913585600 0.871214842
0.000000000 0.909190786 0.875369880
0.827190688 0.827191104 0.827190688
1.000000000 0.446816863 0.614914427
0.000000000 1.000000000 0.367968960
0.000000000 1.000000000 0.367861528
0.000000000 1.000000000 0.367399808
0.000000000 1.000000000 0.365656013
1.000000000 1.000000000 0.312868565
0.000000000 0.000000000 1.000000000
0.000000000 0.000000000 1.000000000
0.216374607 0.000000000 1.000000000
1.000000000 0.000000000 1.000000000
1.000000000 0.000000000 1.000000000
0.000000000 0.062963916 1.000000000
0.000000000 0.033379955 1.000000000
0.132973960 0.000000000 1.000000000
1.000000000 0.000000000 1.000000000
1.000000000 0.000000000 1.000000000
0.000000000 0.468690013 1.000000000
0.000000000 0.463420593 1.000000000
0.000000000 0.439656943 1.000000000
0.982000955 0.286854418 1.000000000
1.000000000 0.000000000 1.000000000
0.000000000 0.819979236 1.000000000
0.000000000 0.818772233 1.000000000
0.000000000 0.813519417 1.000000000
0.648345440 0.757606327 1.000000000
1.000000000 0.411220731 1.000000000
0.000000000 1.000000000 1.000000000
0.000000000 1.000000000 1.000000000
0.000000000 1.000000000 1.000000000
0.000000000 1.000000000 1.000000000
0.999999714 1.000000000 0.999999714
