src/bladeworks/spatial_luts/rec2020_pq_to_rec709_sdr_v1.cube
TITLE "Bladeworks Rec.2020 PQ to Rec.709 SDR v1"
LUT_3D_SIZE 5
DOMAIN_MIN 0.0 0.0 0.0
DOMAIN_MAX 1.0 1.0 1.0
0.000000000 0.000000000 0.000000000
0.261651180 0.000000000 0.000000000
1.000000000 0.000000000 0.000000000
1.000000000 0.000000000 0.000000000
1.000000000 0.000000000 0.000000000
0.000000000 0.201567061 0.000000000
0.193396534 0.185350996 0.000000000
1.000000000 0.000000000 0.000000000
1.000000000 0.000000000 0.000000000
1.000000000 0.000000000 0.000000000
0.000000000 0.775955694 0.000000000
0.000000000 0.774548689 0.000000000
0.728468402 0.705699909 0.000000000
1.000000000 0.000000000 0.000000000
1.000000000 0.000000000 0.000000000
0.000000000 1.000000000 0.000000000
0.000000000 1.000000000 0.000000000
0.000000000 1.000000000 0.000000000
1.000000000 1.000000000 0.000000000
1.000000000 0.000000000 0.000000000
0.000000000 1.000000000 0.000000000
0.000000000 1.000000000 0.000000000
0.000000000 1.000000000 0.000000000
0.000000000 1.000000000 0.000000000
1.000000000 1.000000000 0.000000000
0.000000000 0.000000000 0.204802918
0.253934436 0.000000000 0.200285066
1.000000000 0.000000000 0.130925828
1.000000000 0.000000000 0.000000000
1.000000000 0.000000000 0.000000000
0.000000000 0.200123571 0.187039166
0.183975029 0.183975156 0.183975029
1.000000000 0.000000000 0.117822790
1.000000000 0.000000000 0.000000000
1.000000000 0.000000000 0.000000000
0.000000000 0.775861688 0.000000000
0.000000000 0.774454016 0.000000000
0.727269384 0.705741971 0.000000000
1.000000000 0.000000000 0.000000000
1.000000000 0.000000000 0.000000000
0.000000000 1.000000000 0.000000000
0.000000000 1.000000000 0.000000000
0.000000000 1.000000000 0.000000000
1.000000000 1.000000000 0.000000000
1.000000000 0.000000000 0.000000000
0.000000000 1.000000000 0.000000000
0.000000000 1.000000000 0.000000000
0.000000000 1.000000000 0.000000000
0.000000000 1.000000000 0.000000000
1.000000000 1.000000000 0.000000000
0.000000000 0.000000000 0.980570194
0.076775783 0.000000000 0.978416973
1.000000000 0.000000000 0.858412308
1.000000000 0.000000000 0.428268977
1.000000000 0.000000000 0.000000000
0.000000000 0.175135266 0.962494081
0.000000000 0.159412719 0.964045927
1.000000000 0.000000000 0.858302751
1.000000000 0.000000000 0.427166979
1.000000000 0.000000000 0.000000000
0.000000000 0.759647142 0.722087792
0.000000000 0.758227865 0.722655089
0.694016871 0.694017228 0.694016871
1.000000000 0.000000000 0.407590988
1.000000000 0.000000000 0.000000000
0.000000000 1.000000000 0.023252703
0.000000000 1.000000000 0.022756572
0.000000000 1.000000000 0.014301280
1.000000000 1.000000000 0.000000000
1.000000000 0.000000000 0.000000000
0.000000000 1.000000000 0.000000000
0.000000000 1.000000000 0.000000000
0.000000000 1.000000000 0.000000000
0.000000000 1.000000000 0.000000000
1.000000000 1.000000000 0.000000000
0.000000000 0.000000000 1.000000000
0.000000000 0.000000000 1.000000000
0.643719323 0.000000000 1.000000000
1.000000000 0.000000000 1.000000000
1.000000000 0.000000000 0.576356208
0.000000000 0.000000000 1.000000000
0.000000000 0.000000000 1.000000000
0.632293508 0.000000000 1.000000000
1.000000000 0.000000000 1.000000000
1.000000000 0.000000000 0.576225676
0.000000000 0.624222443 1.000000000
0.000000000 0.622645201 1.000000000
0.313165579 0.587117686 1.000000000
1.000000000 0.000000000 1.000000000
1.000000000 0.000000000 0.574010614
0.000000000 1.000000000 1.000000000
0.000000000 1.000000000 1.000000000
0.000000000 1.000000000 1.000000000
0.998493497 0.998493991 0.998493497
1.000000000 0.000000000 0.550256130
0.000000000 1.000000000 0.093448286
0.000000000 1.000000000 0.093365076
0.000000000 1.000000000 0.091951564
0.000000000 1.000000000 0.076419556
1.000000000 1.000000000 0.000000000
0.000000000 0.000000000 1.000000000
0.000000000 0.000000000 1.000000000
0.000000000 0.000000000 1.000000000
0.951907699 0.000000000 1.000000000
1.000000000 0.000000000 1.000000000
0.000000000 0.000000000 1.000000000
0.000000000 0.000000000 1.000000000
0.000000000 0.000000000 1.000000000
0.950586164 0.000000000 1.000000000
1.000000000 0.000000000 1.000000000
0.000000000 0.108697265 1.000000000
0.000000000 0.105860462 1.000000000
0.000000000 0.050730868 1.000000000
0.927713778 0.000000000 1.000000000
1.000000000 0.000000000 1.000000000
0.000000000 0.852562583 1.000000000
0.000000000 0.852400325 1.000000000
0.000000000 0.849642690 1.000000000
0.470922226 0.804062851 1.000000000
1.000000000 0.000000000 1.000000000
0.000000000 1.000000000 1.000000000
0.000000000 1.000000000 1.000000000
0.000000000 1.000000000 1.000000000
0.000000000 1.000000000 1.000000000
1.000000000 1.000000000 1.000000000
