src/bladeworks/spatial_luts/rec2020_pq_to_rec709_sdr_v1.cube
TITLE "Bladeworks Rec.2020 PQ to Rec.709 SDR v1"
LUT_3D_SIZE 17
DOMAIN_MIN 0.0 0.0 0.0
DOMAIN_MAX 1.0 1.0 1.0
0.000000000 0.000000000 0.000000000
0.007515930 0.000000000 0.000000000
0.044284792 0.000000000 0.000000000
0.136448316 0.000000000 0.000000000
0.261651180 0.000000000 0.000000000
0.418148798 0.000000000 0.000000000
0.608422855 0.000000000 0.000000000
0.830672047 0.000000000 0.000000000
1.000000000 0.000000000 0.000000000
1.000000000 0.000000000 0.000000000
1.000000000 0.000000000 0.000000000
1.000000000 0.000000000 0.000000000
1.000000000 0.000000000 0.000000000
1.000000000 0.000000000 0.000000000
1.000000000 0.000000000 0.000000000
1.000000000 0.000000000 0.000000000
1.000000000 0.000000000 0.000000000
0.000000000 0.005125546 0.000000000
0.004853192 0.004561417 0.000000000
0.041622909 0.001797062 0.000000000
0.134542733 0.000000000 0.000000000
0.260547565 0.000000000 0.000000000
0.417470166 0.000000000 0.000000000
0.607997653 0.000000000 0.000000000
0.830409541 0.000000000 0.000000000
1.000000000 0.000000000 0.000000000
1.000000000 0.000000000 0.000000000
1.000000000 0.000000000 0.000000000
1.000000000 0.000000000 0.000000000
1.000000000 0.000000000 0.000000000
1.000000000 0.000000000 0.000000000
1.000000000 0.000000000 0.000000000
1.000000000 0.000000000 0.000000000
1.000000000 0.000000000 0.000000000
0.000000000 0.030133266 0.000000000
0.000000000 0.029574599 0.000000000
0.028512845 0.026798646 0.000000000
0.124603470 0.019025093 0.000000000
0.255038167 0.001365062 0.000000000
0.414125067 0.000000000 0.000000000
0.605907241 0.000000000 0.000000000
0.829120546 0.000000000 0.000000000
1.000000000 0.000000000 0.000000000
1.000000000 0.000000000 0.000000000
1.000000000 0.000000000 0.000000000
1.000000000 0.000000000 0.000000000
1.000000000 0.000000000 0.000000000
1.000000000 0.000000000 0.000000000
1.000000000 0.000000000 0.000000000
1.000000000 0.000000000 0.000000000
1.000000000 0.000000000 0.000000000
0.000000000 0.098445426 0.000000000
0.000000000 0.097955075 0.000000000
0.000000000 0.095528075 0.000000000
0.093433667 0.088138692 0.000000000
0.237428895 0.069985860 0.000000000
0.403389165 0.033473678 0.000000000
0.599995210 0.000000000 0.000000000
0.825489109 0.000000000 0.000000000
1.000000000 0.000000000 0.000000000
1.000000000 0.000000000 0.000000000
1.000000000 0.000000000 0.000000000
1.000000000 0.000000000 0.000000000
1.000000000 0.000000000 0.000000000
1.000000000 0.000000000 0.000000000
1.000000000 0.000000000 0.000000000
1.000000000 0.000000000 0.000000000
1.000000000 0.000000000 0.000000000
0.000000000 0.201567061 0.000000000
0.000000000 0.201288104 0.000000000
0.000000000 0.199915282 0.000000000
0.010940268 0.195951995 0.000000000
0.193396534 0.185350996 0.000000000
0.375303293 0.162276838 0.000000000
0.580557482 0.111043852 0.000000000
0.817033793 0.000000000 0.000000000
1.000000000 0.000000000 0.000000000
1.000000000 0.000000000 0.000000000
1.000000000 0.000000000 0.000000000
1.000000000 0.000000000 0.000000000
1.000000000 0.000000000 0.000000000
1.000000000 0.000000000 0.000000000
1.000000000 0.000000000 0.000000000
1.000000000 0.000000000 0.000000000
1.000000000 0.000000000 0.000000000
0.000000000 0.326772156 0.000000000
0.000000000 0.326607094 0.000000000
0.000000000 0.325796394 0.000000000
0.000000000 0.323510725 0.000000000
0.068299077 0.317579613 0.000000000
0.313737903 0.302381070 0.000000000
0.536802657 0.272048891 0.000000000
0.781659687 0.211188455 0.000000000
1.000000000 0.061794598 0.000000000
1.000000000 0.000000000 0.000000000
1.000000000 0.000000000 0.000000000
1.000000000 0.000000000 0.000000000
1.000000000 0.000000000 0.000000000
1.000000000 0.000000000 0.000000000
1.000000000 0.000000000 0.000000000
1.000000000 0.000000000 0.000000000
1.000000000 0.000000000 0.000000000
0.000000000 0.471104702 0.000000000
0.000000000 0.471008114 0.000000000
0.000000000 0.470534119 0.000000000
0.000000000 0.469201289 0.000000000
0.000000000 0.466112541 0.000000000
0.165664691 0.457363815 0.000000000
0.450400650 0.435283426 0.000000000
0.714174239 0.394163711 0.000000000
0.993404487 0.318249859 0.000000000
1.000000000 0.162218038 0.000000000
1.000000000 0.000000000 0.000000000
1.000000000 0.000000000 0.000000000
1.000000000 0.000000000 0.000000000
1.000000000 0.000000000 0.000000000
1.000000000 0.000000000 0.000000000
1.000000000 0.000000000 0.000000000
1.000000000 0.000000000 0.000000000
0.000000000 0.625642605 0.000000000
0.000000000 0.625588994 0.000000000
0.000000000 0.625326008 0.000000000
0.000000000 0.624587471 0.000000000
0.000000000 0.622881386 0.000000000
0.000000000 0.619307366 0.000000000
0.269271822 0.606280365 0.000000000
0.593415685 0.574363282 0.000000000
0.892369543 0.518449746 0.000000000
1.000000000 0.422719881 0.000000000
1.000000000 0.249299758 0.000000000
1.000000000 0.000000000 0.000000000
1.000000000 0.000000000 0.000000000
1.000000000 0.000000000 0.000000000
1.000000000 0.000000000 0.000000000
1.000000000 0.000000000 0.000000000
1.000000000 0.000000000 0.000000000
0.000000000 0.775955694 0.000000000
0.000000000 0.775928321 0.000000000
0.000000000 0.775794078 0.000000000
0.000000000 0.775417364 0.000000000
0.000000000 0.774548689 0.000000000
0.000000000 0.772736012 0.000000000
0.000000000 0.769158464 0.000000000
0.370709558 0.750027672 0.000000000
0.728468402 0.705699909 0.000000000
1.000000000 0.632158652 0.000000000
1.000000000 0.514367991 0.000000000
1.000000000 0.320389536 0.000000000
1.000000000 0.000000000 0.000000000
1.000000000 0.000000000 0.000000000
1.000000000 0.000000000 0.000000000
1.000000000 0.000000000 0.000000000
1.000000000 0.000000000 0.000000000
0.000000000 0.907318696 0.000000000
0.000000000 0.907305953 0.000000000
0.000000000 0.907243463 0.000000000
0.000000000 0.907068187 0.000000000
0.000000000 0.906664484 0.000000000
0.000000000 0.905824175 0.000000000
0.000000000 0.904174041 0.000000000
0.000000000 0.901037634 0.000000000
0.460319693 0.874456482 0.000000000
0.842907700 0.816990313 0.000000000
1.000000000 0.725834221 0.000000000
1.000000000 0.587390383 0.000000000
1.000000000 0.374336578 0.000000000
1.000000000 0.000000000 0.000000000
1.000000000 0.000000000 0.000000000
1.000000000 0.000000000 0.000000000
1.000000000 0.000000000 0.000000000
0.000000000 1.000000000 0.000000000
0.000000000 1.000000000 0.000000000
0.000000000 1.000000000 0.000000000
0.000000000 1.000000000 0.000000000
0.000000000 1.000000000 0.000000000
0.000000000 1.000000000 0.000000000
0.000000000 1.000000000 0.000000000
0.000000000 1.000000000 0.000000000
0.000000000 1.000000000 0.000000000
0.532279449 0.972577720 0.000000000
0.931938048 0.903570916 0.000000000
1.000000000 0.797612233 0.000000000
1.000000000 0.642494625 0.000000000
1.000000000 0.413560604 0.000000000
1.000000000 0.000000000 0.000000000
1.000000000 0.000000000 0.000000000
1.000000000 0.000000000 0.000000000
0.000000000 1.000000000 0.000000000
0.000000000 1.000000000 0.000000000
0.000000000 1.000000000 0.000000000
0.000000000 1.000000000 0.000000000
0.000000000 1.000000000 0.000000000
0.000000000 1.000000000 0.000000000
0.000000000 1.000000000 0.000000000
0.000000000 1.000000000 0.000000000
0.000000000 1.000000000 0.000000000
0.000000000 1.000000000 0.000000000
0.586898803 1.000000000 0.000000000
0.999627779 0.969398107 0.000000000
1.000000000 0.852639882 0.000000000
1.000000000 0.685262839 0.000000000
1.000000000 0.442933192 0.000000000
1.000000000 0.000000000 0.000000000
1.000000000 0.000000000 0.000000000
0.000000000 1.000000000 0.000000000
0.000000000 1.000000000 0.000000000
0.000000000 1.000000000 0.000000000
0.000000000 1.000000000 0.000000000
0.000000000 1.000000000 0.000000000
0.000000000 1.000000000 0.000000000
0.000000000 1.000000000 0.000000000
0.000000000 1.000000000 0.000000000
0.000000000 1.000000000 0.000000000
0.000000000 1.000000000 0.000000000
0.000000000 1.000000000 0.000000000
0.629205709 1.000000000 0.000000000
1.000000000 1.000000000 0.000000000
1.000000000 0.900050207 0.000000000
1.000000000 0.723815512 0.000000000
1.000000000 0.468507655 0.000000000
1.000000000 0.000000000 0.000000000
0.000000000 1.000000000 0.000000000
0.000000000 1.000000000 0.000000000
0.000000000 1.000000000 0.000000000
0.000000000 1.000000000 0.000000000
0.000000000 1.000000000 0.000000000
0.000000000 1.000000000 0.000000000
0.000000000 1.000000000 0.000000000
0.000000000 1.000000000 0.000000000
0.000000000 1.000000000 0.000000000
0.000000000 1.000000000 0.000000000
0.000000000 1.000000000 0.000000000
0.000000000 1.000000000 0.000000000
0.666694360 1.000000000 0.000000000
1.000000000 1.000000000 0.000000000
1.000000000 0.951110279 0.000000000
1.000000000 0.767933198 0.000000000
1.000000000 0.497082573 0.000000000
0.000000000 1.000000000 0.000000000
0.000000000 1.000000000 0.000000000
0.000000000 1.000000000 0.000000000
0.000000000 1.000000000 0.000000000
0.000000000 1.000000000 0.000000000
0.000000000 1.000000000 0.000000000
0.000000000 1.000000000 0.000000000
0.000000000 1.000000000 0.000000000
0.000000000 1.000000000 0.000000000
0.000000000 1.000000000 0.000000000
0.000000000 1.000000000 0.000000000
0.000000000 1.000000000 0.000000000
0.000000000 1.000000000 0.000000000
0.708381384 1.000000000 0.000000000
1.000000000 1.000000000 0.000000000
1.000000000 1.000000000 0.000000000
1.000000000 0.829575476 0.000000000
0.000000000 1.000000000 0.000000000
0.000000000 1.000000000 0.000000000
0.000000000 1.000000000 0.000000000
0.000000000 1.000000000 0.000000000
0.000000000 1.000000000 0.000000000
0.000000000 1.000000000 0.000000000
0.000000000 1.000000000 0.000000000
0.000000000 1.000000000 0.000000000
0.000000000 1.000000000 0.000000000
0.000000000 1.000000000 0.000000000
0.000000000 1.000000000 0.000000000
0.000000000 1.000000000 0.000000000
0.000000000 1.000000000 0.000000000
0.000000000 1.000000000 0.000000000
0.765175298 1.000000000 0.000000000
1.000000000 1.000000000 0.000000000
1.000000000 1.000000000 0.000000000
0.000000000 1.000000000 0.000000000
0.000000000 1.000000000 0.000000000
0.000000000 1.000000000 0.000000000
0.000000000 1.000000000 0.000000000
0.000000000 1.000000000 0.000000000
0.000000000 1.000000000 0.000000000
0.000000000 1.000000000 0.000000000
0.000000000 1.000000000 0.000000000
0.000000000 1.000000000 0.000000000
0.000000000 1.000000000 0.000000000
0.000000000 1.000000000 0.000000000
0.000000000 1.000000000 0.000000000
0.000000000 1.000000000 0.000000000
0.000000000 1.000000000 0.000000000
0.000000000 1.000000000 0.000000000
0.850652741 1.000000000 0.000000000
1.000000000 1.000000000 0.000000000
0.000000000 0.000000000 0.005065114
0.007185729 0.000000000 0.004981266
0.043953102 0.000000000 0.004570687
0.136207368 0.000000000 0.003427460
0.261512438 0.000000000 0.000840481
0.418064736 0.000000000 0.000000000
0.608370165 0.000000000 0.000000000
0.830639512 0.000000000 0.000000000
1.000000000 0.000000000 0.000000000
1.000000000 0.000000000 0.000000000
1.000000000 0.000000000 0.000000000
1.000000000 0.000000000 0.000000000
1.000000000 0.000000000 0.000000000
1.000000000 0.000000000 0.000000000
1.000000000 0.000000000 0.000000000
1.000000000 0.000000000 0.000000000
1.000000000 0.000000000 0.000000000
0.000000000 0.005087430 0.004606080
0.004523416 0.004523420 0.004523416
0.041291967 0.001759265 0.004115644
0.134300177 0.000000000 0.002975576
0.260409432 0.000000000 0.000393174
0.417385948 0.000000000 0.000000000
0.607944911 0.000000000 0.000000000
0.830376988 0.000000000 0.000000000
1.000000000 0.000000000 0.000000000
1.000000000 0.000000000 0.000000000
1.000000000 0.000000000 0.000000000
1.000000000 0.000000000 0.000000000
1.000000000 0.000000000 0.000000000
1.000000000 0.000000000 0.000000000
1.000000000 0.000000000 0.000000000
1.000000000 0.000000000 0.000000000
1.000000000 0.000000000 0.000000000
0.000000000 0.030094689 0.002366196
0.000000000 0.029536074 0.002284607
0.028184573 0.026760821 0.001881937
0.124352716 0.018987808 0.000756342
0.254899223 0.001327936 0.000000000
0.414040078 0.000000000 0.000000000
0.605854249 0.000000000 0.000000000
0.829087904 0.000000000 0.000000000
1.000000000 0.000000000 0.000000000
1.000000000 0.000000000 0.000000000
1.000000000 0.000000000 0.000000000
1.000000000 0.000000000 0.000000000
1.000000000 0.000000000 0.000000000
1.000000000 0.000000000 0.000000000
1.000000000 0.000000000 0.000000000
1.000000000 0.000000000 0.000000000
1.000000000 0.000000000 0.000000000
0.000000000 0.098412606 0.000000000
0.000000000 0.097922148 0.000000000
0.000000000 0.095494617 0.000000000
0.093135823 0.088104954 0.000000000
0.237281978 0.069950501 0.000000000
0.403303393 0.033438154 0.000000000
0.599941501 0.000000000 0.000000000
0.825456214 0.000000000 0.000000000
1.000000000 0.000000000 0.000000000
1.000000000 0.000000000 0.000000000
1.000000000 0.000000000 0.000000000
1.000000000 0.000000000 0.000000000
1.000000000 0.000000000 0.000000000
1.000000000 0.000000000 0.000000000
1.000000000 0.000000000 0.000000000
1.000000000 0.000000000 0.000000000
1.000000000 0.000000000 0.000000000
0.000000000 0.201548373 0.000000000
0.000000000 0.201269392 0.000000000
0.000000000 0.199896449 0.000000000
0.010623349 0.195934784 0.000000000
0.193224726 0.185332918 0.000000000
0.375212547 0.162256625 0.000000000
0.580504057 0.111017115 0.000000000
0.817000303 0.000000000 0.000000000
1.000000000 0.000000000 0.000000000
1.000000000 0.000000000 0.000000000
1.000000000 0.000000000 0.000000000
1.000000000 0.000000000 0.000000000
1.000000000 0.000000000 0.000000000
1.000000000 0.000000000 0.000000000
1.000000000 0.000000000 0.000000000
1.000000000 0.000000000 0.000000000
1.000000000 0.000000000 0.000000000
0.000000000 0.326761095 0.000000000
0.000000000 0.326596026 0.000000000
0.000000000 0.325785291 0.000000000
0.000000000 0.323499523 0.000000000
0.067998623 0.317570832 0.000000000
0.313633369 0.302371723 0.000000000
0.536746109 0.272038307 0.000000000
0.781627279 0.211174752 0.000000000
1.000000000 0.061766945 0.000000000
1.000000000 0.000000000 0.000000000
1.000000000 0.000000000 0.000000000
1.000000000 0.000000000 0.000000000
1.000000000 0.000000000 0.000000000
1.000000000 0.000000000 0.000000000
1.000000000 0.000000000 0.000000000
1.000000000 0.000000000 0.000000000
1.000000000 0.000000000 0.000000000
0.000000000 0.471098228 0.000000000
0.000000000 0.471001639 0.000000000
0.000000000 0.470527632 0.000000000
0.000000000 0.469194770 0.000000000
0.000000000 0.466105948 0.000000000
0.165494177 0.457360292 0.000000000
0.450336161 0.435279431 0.000000000
0.714139729 0.394158801 0.000000000
0.993385926 0.318243038 0.000000000
1.000000000 0.162204625 0.000000000
1.000000000 0.000000000 0.000000000
1.000000000 0.000000000 0.000000000
1.000000000 0.000000000 0.000000000
1.000000000 0.000000000 0.000000000
1.000000000 0.000000000 0.000000000
1.000000000 0.000000000 0.000000000
1.000000000 0.000000000 0.000000000
0.000000000 0.625639012 0.000000000
0.000000000 0.625585399 0.000000000
0.000000000 0.625322410 0.000000000
0.000000000 0.624583862 0.000000000
0.000000000 0.622877753 0.000000000
0.000000000 0.619303680 0.000000000
0.269175244 0.606280067 0.000000000
0.593376377 0.574362496 0.000000000
0.892349321 0.518448129 0.000000000
1.000000000 0.422716836 0.000000000
1.000000000 0.249293332 0.000000000
1.000000000 0.000000000 0.000000000
1.000000000 0.000000000 0.000000000
1.000000000 0.000000000 0.000000000
1.000000000 0.000000000 0.000000000
1.000000000 0.000000000 0.000000000
1.000000000 0.000000000 0.000000000
0.000000000 0.775953859 0.000000000
0.000000000 0.775926486 0.000000000
0.000000000 0.775792242 0.000000000
0.000000000 0.775415525 0.000000000
0.000000000 0.774546841 0.000000000
0.000000000 0.772734147 0.000000000
0.000000000 0.769156565 0.000000000
0.370653456 0.750029017 0.000000000
0.728445028 0.705700730 0.000000000
1.000000000 0.632158675 0.000000000
1.000000000 0.514366855 0.000000000
1.000000000 0.320386361 0.000000000
1.000000000 0.000000000 0.000000000
1.000000000 0.000000000 0.000000000
1.000000000 0.000000000 0.000000000
1.000000000 0.000000000 0.000000000
1.000000000 0.000000000 0.000000000
0.000000000 0.907317842 0.000000000
0.000000000 0.907305098 0.000000000
0.000000000 0.907242608 0.000000000
0.000000000 0.907067332 0.000000000
0.000000000 0.906663626 0.000000000
0.000000000 0.905823312 0.000000000
0.000000000 0.904173169 0.000000000
0.000000000 0.901036743 0.000000000
0.460287087 0.874458284 0.000000000
0.842894115 0.816991610 0.000000000
1.000000000 0.725834812 0.000000000
1.000000000 0.587390067 0.000000000
1.000000000 0.374334965 0.000000000
1.000000000 0.000000000 0.000000000
1.000000000 0.000000000 0.000000000
1.000000000 0.000000000 0.000000000
1.000000000 0.000000000 0.000000000
0.000000000 1.000000000 0.000000000
0.000000000 1.000000000 0.000000000
0.000000000 1.000000000 0.000000000
0.000000000 1.000000000 0.000000000
0.000000000 1.000000000 0.000000000
0.000000000 1.000000000 0.000000000
0.000000000 1.000000000 0.000000000
0.000000000 1.000000000 0.000000000
0.000000000 1.000000000 0.000000000
0.532260585 0.972579305 0.000000000
0.931930239 0.903572082 0.000000000
1.000000000 0.797612847 0.000000000
1.000000000 0.642494586 0.000000000
1.000000000 0.413559744 0.000000000
1.000000000 0.000000000 0.000000000
1.000000000 0.000000000 0.000000000
1.000000000 0.000000000 0.000000000
0.000000000 1.000000000 0.000000000
0.000000000 1.000000000 0.000000000
0.000000000 1.000000000 0.000000000
0.000000000 1.000000000 0.000000000
0.000000000 1.000000000 0.000000000
0.000000000 1.000000000 0.000000000
0.000000000 1.000000000 0.000000000
0.000000000 1.000000000 0.000000000
0.000000000 1.000000000 0.000000000
0.000000000 1.000000000 0.000000000
0.586887893 1.000000000 0.000000000
0.999623279 0.969398945 0.000000000
1.000000000 0.852640333 0.000000000
1.000000000 0.685262856 0.000000000
1.000000000 0.442932700 0.000000000
1.000000000 0.000000000 0.000000000
1.000000000 0.000000000 0.000000000
0.000000000 1.000000000 0.000000000
0.000000000 1.000000000 0.000000000
0.000000000 1.000000000 0.000000000
0.000000000 1.000000000 0.000000000
0.000000000 1.000000000 0.000000000
0.000000000 1.000000000 0.000000000
0.000000000 1.000000000 0.000000000
0.000000000 1.000000000 0.000000000
0.000000000 1.000000000 0.000000000
0.000000000 1.000000000 0.000000000
0.000000000 1.000000000 0.000000000
0.629199362 1.000000000 0.000000000
1.000000000 1.000000000 0.000000000
1.000000000 0.900050485 0.000000000
1.000000000 0.723815518 0.000000000
1.000000000 0.468507351 0.000000000
1.000000000 0.000000000 0.000000000
0.000000000 1.000000000 0.000000000
0.000000000 1.000000000 0.000000000
0.000000000 1.000000000 0.000000000
0.000000000 1.000000000 0.000000000
0.000000000 1.000000000 0.000000000
0.000000000 1.000000000 0.000000000
0.000000000 1.000000000 0.000000000
0.000000000 1.000000000 0.000000000
0.000000000 1.000000000 0.000000000
0.000000000 1.000000000 0.000000000
0.000000000 1.000000000 0.000000000
0.000000000 1.000000000 0.000000000
0.666690619 1.000000000 0.000000000
1.000000000 1.000000000 0.000000000
1.000000000 0.951110427 0.000000000
1.000000000 0.767933182 0.000000000
1.000000000 0.497082370 0.000000000
0.000000000 1.000000000 0.000000000
0.000000000 1.000000000 0.000000000
0.000000000 1.000000000 0.000000000
0.000000000 1.000000000 0.000000000
0.000000000 1.000000000 0.000000000
0.000000000 1.000000000 0.000000000
0.000000000 1.000000000 0.000000000
0.000000000 1.000000000 0.000000000
0.000000000 1.000000000 0.000000000
0.000000000 1.000000000 0.000000000
0.000000000 1.000000000 0.000000000
0.000000000 1.000000000 0.000000000
0.000000000 1.000000000 0.000000000
0.708379136 1.000000000 0.000000000
1.000000000 1.000000000 0.000000000
1.000000000 1.000000000 0.000000000
1.000000000 0.829575446 0.000000000
0.000000000 1.000000000 0.000000000
0.000000000 1.000000000 0.000000000
0.000000000 1.000000000 0.000000000
0.000000000 1.000000000 0.000000000
0.000000000 1.000000000 0.000000000
0.000000000 1.000000000 0.000000000
0.000000000 1.000000000 0.000000000
0.000000000 1.000000000 0.000000000
0.000000000 1.000000000 0.000000000
0.000000000 1.000000000 0.000000000
0.000000000 1.000000000 0.000000000
0.000000000 1.000000000 0.000000000
0.000000000 1.000000000 0.000000000
0.000000000 1.000000000 0.000000000
0.765173911 1.000000000 0.000000000
1.000000000 1.000000000 0.000000000
1.000000000 1.000000000 0.000000000
0.000000000 1.000000000 0.000000000
0.000000000 1.000000000 0.000000000
0.000000000 1.000000000 0.000000000
0.000000000 1.000000000 0.000000000
0.000000000 1.000000000 0.000000000
0.000000000 1.000000000 0.000000000
0.000000000 1.000000000 0.000000000
0.000000000 1.000000000 0.000000000
0.000000000 1.000000000 0.000000000
0.000000000 1.000000000 0.000000000
0.000000000 1.000000000 0.000000000
0.000000000 1.000000000 0.000000000
0.000000000 1.000000000 0.000000000
0.000000000 1.000000000 0.000000000
0.000000000 1.000000000 0.000000000
0.850651857 1.000000000 0.000000000
1.000000000 1.000000000 0.000000000
0.000000000 0.000000000 0.029883925
0.005567566 0.000000000 0.029794056
0.042326018 0.000000000 0.029341096
0.135008920 0.000000000 0.028079868
0.260779223 0.000000000 0.025225898
0.417580389 0.000000000 0.019503638
0.608066085 0.000000000 0.009054451
0.830479984 0.000000000 0.000000000
1.000000000 0.000000000 0.000000000
1.000000000 0.000000000 0.000000000
1.000000000 0.000000000 0.000000000
1.000000000 0.000000000 0.000000000
1.000000000 0.000000000 0.000000000
1.000000000 0.000000000 0.000000000
1.000000000 0.000000000 0.000000000
1.000000000 0.000000000 0.000000000
1.000000000 0.000000000 0.000000000
0.000000000 0.004900480 0.029406249
0.002907123 0.004337026 0.029322814
0.039667119 0.001573908 0.028883436
0.133090126 0.000000000 0.027631351
0.259673711 0.000000000 0.024781884
0.416902537 0.000000000 0.019068675
0.607642720 0.000000000 0.008636089
0.830217371 0.000000000 0.000000000
1.000000000 0.000000000 0.000000000
1.000000000 0.000000000 0.000000000
1.000000000 0.000000000 0.000000000
1.000000000 0.000000000 0.000000000
1.000000000 0.000000000 0.000000000
1.000000000 0.000000000 0.000000000
1.000000000 0.000000000 0.000000000
1.000000000 0.000000000 0.000000000
1.000000000 0.000000000 0.000000000
0.000000000 0.029899381 0.027070435
0.000000000 0.029340952 0.026991088
0.026568849 0.026568875 0.026568849
0.123085205 0.018798776 0.025355687
0.254159987 0.001145501 0.022599469
0.413561149 0.000000000 0.016934771
0.605561275 0.000000000 0.006583696
0.828927850 0.000000000 0.000000000
1.000000000 0.000000000 0.000000000
1.000000000 0.000000000 0.000000000
1.000000000 0.000000000 0.000000000
1.000000000 0.000000000 0.000000000
1.000000000 0.000000000 0.000000000
1.000000000 0.000000000 0.000000000
1.000000000 0.000000000 0.000000000
1.000000000 0.000000000 0.000000000
1.000000000 0.000000000 0.000000000
0.000000000 0.098222541 0.020620168
0.000000000 0.097731749 0.020541108
0.000000000 0.095302502 0.020153327
0.091641429 0.087914077 0.018982954
0.236521442 0.069759080 0.016302914
0.402843596 0.033258239 0.010882965
0.599674029 0.000000000 0.000818642
0.825294922 0.000000000 0.000000000
1.000000000 0.000000000 0.000000000
1.000000000 0.000000000 0.000000000
1.000000000 0.000000000 0.000000000
1.000000000 0.000000000 0.000000000
1.000000000 0.000000000 0.000000000
1.000000000 0.000000000 0.000000000
1.000000000 0.000000000 0.000000000
1.000000000 0.000000000 0.000000000
1.000000000 0.000000000 0.000000000
0.000000000 0.201443197 0.006308870
0.000000000 0.201164277 0.006230489
0.000000000 0.199791623 0.005846047
0.009068854 0.195840346 0.004764851
0.192375900 0.185239695 0.002251332
0.374767322 0.162157496 0.000000000
0.580242052 0.110885965 0.000000000
0.816836090 0.000000000 0.000000000
1.000000000 0.000000000 0.000000000
1.000000000 0.000000000 0.000000000
1.000000000 0.000000000 0.000000000
1.000000000 0.000000000 0.000000000
1.000000000 0.000000000 0.000000000
1.000000000 0.000000000 0.000000000
1.000000000 0.000000000 0.000000000
1.000000000 0.000000000 0.000000000
1.000000000 0.000000000 0.000000000
